FINK
CUT[FRAU SCHWALBE IST NE SCHWAETZERIN]
REG[Europa, Mitteleuropa, Deutschland]
KEY[F0318  08  G 2/4]
MEL[3  3-5-53  2-5-5
    6  6-7-76  5_0
    3  3-5-53  2-5-5
    3  21-7-6  -5_0
    -5  -542-5  -531
    -5  -6-6-7-7  1_0
    -5  -542-5  -531
    -5  -6-6-7-7  1_0 //] >>
FCT[Jugend - Lied, Natur, Tier]
